!!!SOCIAL_FUNCTION:	deer dance songs
!!!PDT:	1932
!!!OTL: No_94_The_Hunt_(c).krn
!!!REG: Southwest
!!!LANG: Non-Tone
!!!LING_GROUP: Yuman-Cochimi
**kern
*staff1
=1-
*clefF4
*k[b-e-a-d-]
*M2/4
4r
8r
8c\
=2
8.c\L
16B-\Jk
12A-\L
12G\
12E-\J
=3
4C/
8r
8c\
=4||
*M3/4
8.c\L
16B-\Jk
12A-\L
12G\
12E-\J
8C/
16r
16C/
=5
4F\
16A-\LL
16G\
16G\
16F\JJ
8En\
16r
16G\
=6||
*M2/4
4F\
16A-\LL
16G\
16F\
16F\JJ
=7
8F\L
[8F\J
4F\]
=8
2F\
=9:|!
16c\LL
16c\
16B-\
16A-\JJ
16A-\LL
16G\
16F\
16En\JJ
=10
16A-\LL
16G\
16F\
16F\JJ
20F\LL
20F\
20F\
20F\
20F\JJ
=11||
*M3/4
12F\L
12F\
12G\J
12F\L
12F\
12E-\J
8C/
16r
16C/
=12
4E-\
4E-\
8F\
16r
16c\
=13
4.c\
8A-\
16A-\LL
16A-\
16A-\
16A-\JJ
=14
2.A-\
==
*-
